!!!OTL: Der bestrafte F&auml;hnrich (35b), S. 122f
!!!id: T0161
**kern
*clefG2
*k[f#]
*G:
{4d
=1
8d
8g
4g
4g
8g
8g
=2
4g
8g
8a
4b
8a
8g
=3
2a}
4r
=4
{4g
=5
8f#
8a
4a
4a
8a
8a
=6
4a
8a
8b
4dd
8cc
8b
=7
4b
4a}
4r
=8
{4dd
=9
8.b
16b
8b
8b
8b
8dd
8cc}
=10
{8b
=11
8.a
16dd
8dd
16dd
16ee
4dd}
=12
{4d
=13
4g
4a
8.dd
16cc
8b
8a
=14
4b
4a
4g}
==
*-
!!!minrhy: 16
!!!meters: 4/4 ]  ZZ[5
!!!cut: Der bestrafte F&auml;hnrich (35b), S. 122f
!!!reg: Luxemburg
!!!trd: Singendes Volk, Esch-Alzette 1937 posth.
!!!rhy1: X__  X_X_X__X__X_X_  X__X_X_X__X_X_  X___0_   (x2)
!!!rhy2: X__  X_X_X__X__X_X_  X__X_X_X__X_X_  X__X__0_
!!!key: T0161  16  G 4/4 ]  ZZ[5
!!!mod: HEPTATONIK IONISCH]  AMBITUS[10
!!!kad: 22451
!!!akz: -51132_72253_33_25_1531_
!!!fot: 'a__b__c__d__e__
!!!for: 'a__aw_b__c__d__
!!!fok: '/__Ma_\__/__^a_
!! PHRAS[AUFTAKTIG]
!!!fkt: Liebeslieder
!!!bem: Heffingen, hhh Nikolaus Ewen, 9.9.1934
!! THILL, Mathias:
!! PR[36] 2K[2] 2G[9] 3K[0] 3G[4] 4A[7] 4Ü[0] 5A[0] 6K[0] 6G[0]
!! 7K[0] 7G[0] 8A[2] MEHR[0] SI[24] ABS[45] SR[11] SP[13]
!! ST[16] 2k[7] 2g[29] 3k[2] 3g[0] 4d[0] 4ü[0] 5d[2] 6k[0] 6g[0]
!! 7k[0] 7g[0] 8d[0] mehr[0] si[40] dm[-16] sr[36] sp[4]
!! 1F[64] 2F[36] 3F[0] 4F[0] LF[0] 2P[0] 3P[0] 4P[0] TRI[0] DF[2] AB[47]
!! TF[0] U3K[0] U3[0] U4[2] U4Ü[0] U5[13] U6K[0] U6[0] U7K[0] U7[2]
!! N1[26] N2K[0] N2[20] N3K[0] N3[17] N4[7] N4Ü[0] N5[13] N6K[0] N6[0]
!!!n7k: 0] N7[0] O1[0] O2K[0] O2[0] O3K[0] O3[0] HÖ[0
!!!RNB: symbol: &auml;      = a umlaut  (UTF-8: Å„)
